assets/emojis/GrinningFacewithBigEyes.svg

<svg width="125" height="126" viewBox="0 0 125 126" fill="none" xmlns="http://www.w3.org/2000/svg">
<circle cx="62.375" cy="62.77" r="62.3496" fill="#F9B42F"/>
<path opacity="0.3" fill-rule="evenodd" clip-rule="evenodd" d="M113.311 98.9413C101.989 110.533 86.1869 117.728 68.704 117.728C34.2693 117.728 6.35442 89.8133 6.35442 55.3786C6.35442 41.9829 10.5789 29.5739 17.7682 19.4111C6.79053 30.6503 0.0253906 46.022 0.0253906 62.9739C0.0253906 97.4086 27.9403 125.324 62.375 125.324C83.414 125.324 102.019 114.903 113.311 98.9413Z" fill="#BC8417"/>
<path d="M37.1158 62.5729C39.7707 62.5729 41.923 60.4206 41.923 57.7657C41.923 55.1108 39.7707 52.9585 37.1158 52.9585C34.4608 52.9585 32.3086 55.1108 32.3086 57.7657C32.3086 60.4206 34.4608 62.5729 37.1158 62.5729Z" fill="#2C2A46"/>
<path d="M87.8218 62.5729C90.4768 62.5729 92.629 60.4206 92.629 57.7657C92.629 55.1108 90.4768 52.9585 87.8218 52.9585C85.1669 52.9585 83.0146 55.1108 83.0146 57.7657C83.0146 60.4206 85.1669 62.5729 87.8218 62.5729Z" fill="#2C2A46"/>
<path d="M79.0193 75.3423H45.8713C43.1993 75.3423 42.2288 78.4946 44.1194 80.4062C48.266 84.5586 53.8747 89.2681 62.4327 89.2681C70.9907 89.2681 76.5994 84.5207 80.746 80.4062C82.6618 78.4946 81.6913 75.3423 79.0193 75.3423Z" fill="#2C2A46"/>
</svg>

<svg xmlns="http://www.w3.org/2000/svg" width="125" height="126" fill="none" viewBox="0 0 125 126"><circle cx="62.375" cy="62.77" r="62.35" fill="#f9b42f"/><path fill="#bc8417" fill-rule="evenodd" d="M113.311 98.941c-11.322 11.592-27.124 18.787-44.607 18.787-34.435 0-62.35-27.915-62.35-62.35 0-13.395 4.225-25.804 11.414-35.967C6.791 30.651.025 46.022.025 62.974c0 34.435 27.915 62.35 62.35 62.35 21.039 0 39.644-10.421 50.936-26.383" clip-rule="evenodd" opacity=".3"/><path fill="#2c2a46" d="M37.116 62.573a4.807 4.807 0 1 0 0-9.615 4.807 4.807 0 0 0 0 9.615m50.706 0a4.807 4.807 0 1 0 0-9.614 4.807 4.807 0 0 0 0 9.614M79.02 75.342H45.87c-2.672 0-3.642 3.153-1.752 5.064 4.147 4.153 9.756 8.862 18.314 8.862s14.166-4.747 18.313-8.862c1.916-1.911.945-5.064-1.727-5.064"/></svg>
